X:1
T:Title
%%score ( 1 2 3 ) { ( 4 6 ) | 5 }
L:1/8
Q:1/4=113
M:4/4
K:Bb
V:1 treble nm="Grand Piano, Staff"
V:2 treble 
V:3 treble 
V:4 bass nm="Choir Pad, St. Athanasius, 77.77.77"
V:6 bass 
V:5 bass 
V:1
 F2 [FG]2 [EA]2 [DB]2 | [Fd]3 [Ec] [DB]4 | [Ee]2 [Fd]2 [Fc]2 [FB]2 | A4 z4 | %4
w: By~Edward~john~Hopkins,~1872 * * *||||
 [DF]2 [FG]2 [EA]2 [DB]2 | [^Fd]3 [Fc] [GB]4 | [=Ed]2 [Fc]2 F2 [FG]2 | A4 z4 | e4 z4 | d4 z4 | %10
w: ||||||
 G4 z4 | [DB]2 [Ec]2 [DB]4- | [DB]2 z2 z4 |] %13
w: |||
V:2
 x8 | x8 | x8 | E2 z G [EF]4 | x8 | x8 | x8 | F2 z G F4 | E2 z e [Fd]2 [FB]2 | F2 z c [GB]4 | %10
 E2 z G [CA]2 [CB]2 | x8 | x8 |] %13
V:3
 x8 | x8 | x8 | z2 E2 z4 | x8 | x8 | x8 | z2 =E2 z4 | z2 F2 z4 | z2 _A2 z4 | z2 _D2 z4 | x8 | x8 |] %13
V:4
 D2 B,2 F,2 F,2 | F,3 F, F,4 | G,2 F,2 A,2 B,2 | F,2[K:treble] C2 C4 | B,2 D2 C2[K:bass] B,2 | %5
 A,3 A, B,4 | B,2 C2 =B,2 B,2 | z2 B,2 z4 | B,2[K:treble] C2 D2 D2 | B,2 D2 E4 | B,3 B, A,2 G,2 | %11
 B,2 A,2 B,4- | B,2 z2 z4 |] %13
V:5
 B,,2 D,2 C,2 B,,2 | A,,3 A,, B,,4 | B,,2 B,,2 E,2 D,2 | C,2 B,,2 A,,4 | B,,2 B,2 F,2 G,2 | %5
 D,3 D, G,4 | G,2 A,2 G,2 D,2 | .C,4 F,4 | G,2 A,2 B,2 F,2 | D,2 B,,2 E,4 | E,3 E, =E,2 E,2 | %11
 F,2 F,2 B,,4- | B,,2 z2 z4 |] %13
V:6
 x8 | x8 | x8 | x2[K:treble] x6 | x6[K:bass] x2 | x8 | x8 | C2 z C, A,4 | x2[K:treble] x6 | x8 | %10
 x8 | x8 | x8 |] %13

